icons/svg/volume-0.svg

<svg width="24" height="24" viewBox="0 0 24 24" fill="none" xmlns="http://www.w3.org/2000/svg">
<path d="M12.2527 19.4008L7.99088 15.7813C7.81012 15.6277 7.58069 15.5435 7.34353 15.5435H4.75C3.64543 15.5435 2.75 14.648 2.75 13.5435V10.4565C2.75 9.35192 3.64543 8.45648 4.75 8.45648H7.34353C7.58068 8.45648 7.81012 8.3722 7.99088 8.21868L12.2527 4.59907C12.9022 4.04739 13.9 4.50904 13.9 5.36127V18.6386C13.9 19.4909 12.9022 19.9525 12.2527 19.4008Z" stroke="currentColor" stroke-width="1.5" stroke-linejoin="round"/>
<path d="M16.6641 8.54192C17.1449 8.89238 17.5441 9.39645 17.8217 10.0035C18.0993 10.6105 18.2455 11.2991 18.2455 12C18.2455 12.7009 18.0993 13.3895 17.8217 13.9965C17.5441 14.6035 17.1449 15.1076 16.6641 15.458" stroke="currentColor" stroke-width="1.5" stroke-linecap="round" stroke-linejoin="round"/>
<path d="M18.7 6.42391C19.4753 6.98903 20.1191 7.80184 20.5667 8.78065C21.0144 9.75947 21.25 10.8698 21.25 12C21.25 13.1303 21.0144 14.2406 20.5667 15.2194C20.1191 16.1982 19.4753 17.011 18.7 17.5761" stroke="currentColor" stroke-width="1.5" stroke-linecap="round" stroke-linejoin="round"/>
</svg>

<svg xmlns="http://www.w3.org/2000/svg" width="24" height="24" fill="none" viewBox="0 0 24 24"><path stroke="currentColor" stroke-linejoin="round" stroke-width="1.5" d="M12.253 19.4 7.99 15.782a1 1 0 0 0-.647-.238H4.75a2 2 0 0 1-2-2v-3.086a2 2 0 0 1 2-2h2.594a1 1 0 0 0 .647-.238l4.262-3.62a1 1 0 0 1 1.647.762V18.64a1 1 0 0 1-1.647.762Z"/><path stroke="currentColor" stroke-linecap="round" stroke-linejoin="round" stroke-width="1.5" d="M16.664 8.542c.48.35.88.854 1.158 1.462.277.607.424 1.295.424 1.996 0 .7-.147 1.39-.424 1.996-.278.607-.677 1.112-1.158 1.462M18.7 6.424c.775.565 1.42 1.378 1.867 2.357.447.978.683 2.089.683 3.219s-.236 2.24-.683 3.22c-.448.978-1.092 1.791-1.867 2.356"/></svg>
